!!!!SEGMENT: pl-sa--l-1636--037_anonim--keyboard-piece.krn
!!!cenid: 17xx:744
!!!COM: Anonim
!!!COM-rismid: pe30004985
!!!CDT:
!!!CNT:
!!!OTL: [Keyboard piece]
!!!PDT:
!!!AGN: Secular
!!!SMS-siglum: PL-SA
!!!SMS-shelfmark: L 1636
!!!SMS-shelfwork: 037 W
!!!SMS-variant:
!!!SMS-altvar:
!!!NIFC-rismid: 1001076512
!!!URL-scan: http://repozytorium.nifc.pl/skany/pl-sa-nut--l1636
!!!ONB-nifc: 10v, skan 0014, s. 1
!!!AIN: 2 empty
!!!key:
**kern	**kern
*group1	*group1
*part2	*part1
*staff2	*staff1
*Iempty	*Iempty
*I"	*I"
*I'keyb	*I'keyb
*clefF4	*clefC1
*k[b-]	*k[b-]
*F:	*F:
*M2/2	*M2/2
*met(c|)	*met(c|)
=1	=1
!	!LO:TX:a:t=P:problem=brak kreski taktowej
!LO:TX:a:t=P:problem=brak kreski taktowej	!LO:TX:a:t=P:problem=uszkodzony papier
1FF 1AA 1C 1F	1ryy
=2	=2
*^	*
*2\right	*2\right	*2\right
1F	4FF/	1c 1f 1a
.	4GG/	.
!	!LO:TX:a:t=P:problem=4\right&colon; global	!
.	4AA\	.
.	4BB-\	.
=3	=3	=3
2F/	1C	2a\
!	!	!LO:N:vis=8
4E/	.	4g/
4D/	.	4f/
=4	=4	=4
*	*	*^
2E/	2C\	2g/	2e\
2F/	2AA\	2a/	2c\
=5	=5	=5	=5
!	!	!	!
1G	4GG\	1b-	1d
.	4AA\	.	.
.	4BB-\	.	.
.	4C\	.	.
=6	=6	=6	=6
2F/	2D\	2a/	2f\
2G/	2BB-\	2b-/	2d\
=7	=7	=7	=7
2G/	1C	2b-/	1e
2F/	.	2a/	.
*	*	*v	*v
=8	=8	=8
!LO:TX:a:t=P:problem=nuta bez caudy	!	!
4F/	1C	4a/
8E/L	.	8g/L
8D/J	.	8f/J
4E/	.	4g/
4F/	.	4a/
=9	=9	=9
*	*	*^
4G/	1C	4e/	2..c\
4A/	.	4f/	.
2G/	.	4f/	.
.	.	4e/	.
!	!	!	!LO:TX:a:t=P:problem=8\right&colon; global
.	.	.	8B-\
*v	*v	*	*
*	*v	*v
=10	=10
1FF 1AA 1C 1F	1c 1f 1a
==	==
*-	*-
!!!system-decoration: [(g1)]
!!!ENC: Anna Matuszewska
!!!END: 2020-12-07
!!!ENC: Andrzej Borzym
!!!END: 2020-06-11
